/* XPM */
/* close-inactive */
static char * close_inactive_xpm[] = {
"24 24 6 1",
"L c #050605 s inactive_shadow_1",
"H c #2A332A s inactive_highlight_1",
"P c #121612 s inactive_color_2",
"G c #8A8F86 s inactive_mid_1",
"N c #06381A s inactive_highlight_2",
"T c None",
"TTTTHLLLLLLLLLLLLLLHTTTT",
"TTTHPPPPPPPPPPPPPPPPHTTT",
"TTHPPPPPPPPPPPPPPPPPPHTT",
"THPPPPPPPPPPPPPPPPPPPPHT",
"HPPPPPPPPPPPPPPPPPPPPPPH",
"LPPPPNGPPPPPPPPPPGPPPPPL",
"LPPPPGGGPPPPPPPPGGGPPPPL",
"LPPPPPGGGPPPPPPGGGPPPPPL",
"LPPPPPPGGGPPPPGGGPPPPPPL",
"LPPPPPPPGGGPPGGGPPPPPPPL",
"LPPPPPPPPGGGGGGPPPPPPPPL",
"LPPPPPPPPPGGGGPPPPPPPPPL",
"LPPPPPPPPPGGGGPPPPPPPPPL",
"LPPPPPPPPGGGGGGPPPPPPPPL",
"LPPPPPPPGGGPPGGGPPPPPPPL",
"LPPPPPPGGGPPPPGGGPPPPPPL",
"LPPPPPGGGPPPPPPGGGPPPPPL",
"LPPPPGGGPPPPPPPPGGGPPPPL",
"LPPPPPGPPPPPPPPPPGPPPPPL",
"LPPPPPPPPPPPPPPPPPPPPPPL",
"TLPPPPPPPPPPPPPPPPPPPPLT",
"TTLPPPPPPPPPPPPPPPPPPLTT",
"TTTLPPPPPPPPPPPPPPPPLTTT",
"TTTTLLLLLLLLLLLLLLLLTTTT"
};
