/* XPM */
/* active close rad + stop-octagon */
static char * close_active_xpm[] = {
"24 24 6 1",
"L c #050605 s active_shadow_1",
"H c #2A332A s active_highlight_1",
"N c #0E8A3A s active_highlight_2",
"T c None",
"W c #D4EDDD",
"R c #C41E3A",
"TTTTHLLLLLLLLLLLLLLHTTTT",
"TTTHRRRRRRRRRRRRRRRRHTTT",
"TTHRRRRRRRRRRRRRRRRRRHTT",
"THRRRRRRRRRRRRRRRRRRRRHT",
"HRRRRRRRRRRRRRRRRRRRRRRH",
"LRRRRNWRRRRRRRRRRWRRRRRL",
"LRRRRWWWRRRRRRRRWWWRRRRL",
"LRRRRRWWWRRRRRRWWWRRRRRL",
"LRRRRRRWWWRRRRWWWRRRRRRL",
"LRRRRRRRWWWRRWWWRRRRRRRL",
"LRRRRRRRRWWWWWWRRRRRRRRL",
"LRRRRRRRRRWWWWRRRRRRRRRL",
"LRRRRRRRRRWWWWRRRRRRRRRL",
"LRRRRRRRRWWWWWWRRRRRRRRL",
"LRRRRRRRWWWRRWWWRRRRRRRL",
"LRRRRRRWWWRRRRWWWRRRRRRL",
"LRRRRRWWWRRRRRRWWWRRRRRL",
"LRRRRWWWRRRRRRRRWWWRRRRL",
"LRRRRRWRRRRRRRRRRWRRRRRL",
"LRRRRRRRRRRRRRRRRRRRRRRL",
"TLRRRRRRRRRRRRRRRRRRRRLT",
"TTLRRRRRRRRRRRRRRRRRRLTT",
"TTTLRRRRRRRRRRRRRRRRLTTT",
"TTTTLLLLLLLLLLLLLLLLTTTT"
};
