/* XPM */
/* maximize-toggled-active */
static char * maximize_toggled_active_xpm[] = {
"22 22 5 1",
"T c None",
"H c #2A332A s active_highlight_1",
"L c #050605 s active_shadow_1",
"P c #121612 s active_color_2",
"G c #8A8F86 s active_mid_1",
"THHHHHHHHHHHHHHHHHHHHT",
"HPPPPPPPPPPPPPPPPPPPPL",
"HPPPPPPPPPPPPPPPPPPPPL",
"HPPPPPPPPPPPPPPPPPPPPL",
"HPPPPPPPPGGGGGGPPPPPPL",
"HPPPPPPPPGPPPPGPPPPPPL",
"HPPPPPPPPGPPPPGPPPPPPL",
"HPPPPPPGGGGGGPGPPPPPPL",
"HPPPPPPGPGPPPPGPPPPPPL",
"HPPPPPPGPGGGGGGPPPPPPL",
"HPPPPPPGPPPPGPPPPPPPPL",
"HPPPPPPGPPPPGPPPPPPPPL",
"HPPPPPPGGGGGGPPPPPPPPL",
"HPPPPPPPPPPPPPPPPPPPPL",
"HPPPPPPPPPPPPPPPPPPPPL",
"HPPPPPPPPPPPPPPPPPPPPL",
"HPPPPPPPPPPPPPPPPPPPPL",
"HPPPPPPPPPPPPPPPPPPPPL",
"HPPPPPPPPPPPPPPPPPPPPL",
"HPPPPPPPPPPPPPPPPPPPPL",
"HPPPPPPPPPPPPPPPPPPPPL",
"TLLLLLLLLLLLLLLLLLLLLT"
};
