/* XPM */
/* maximize-inactive */
static char * maximize_inactive_xpm[] = {
"24 24 6 1",
"L c #050605 s inactive_shadow_1",
"H c #2A332A s inactive_highlight_1",
"P c #121612 s inactive_color_2",
"G c #8A8F86 s inactive_mid_1",
"N c #06381A s inactive_highlight_2",
"T c None",
"THHHHHHHHHHHHHHHHHHHHHHT",
"HPPPPPPPPPPPPPPPPPPPPPPL",
"HPPPPPPPPPPPPPPPPPPPPPPL",
"HPPPPPPPPPPPPPPPPPPPPPPL",
"HPPPPPPPPPPPPPPPPPPPPPPL",
"HPPPPNNPPPPPPPPPPPPPPPPL",
"HPPPPNGGGGGGGGGGGGPPPPPL",
"HPPPPPGGGGGGGGGGGGPPPPPL",
"HPPPPPGGPPPPPPPPGGPPPPPL",
"HPPPPPGGPPPPPPPPGGPPPPPL",
"HPPPPPGGPPPPPPPPGGPPPPPL",
"HPPPPPGGPPPPPPPPGGPPPPPL",
"HPPPPPGGPPPPPPPPGGPPPPPL",
"HPPPPPGGPPPPPPPPGGPPPPPL",
"HPPPPPGGPPPPPPPPGGPPPPPL",
"HPPPPPGGPPPPPPPPGGPPPPPL",
"HPPPPPGGGGGGGGGGGGPPPPPL",
"HPPPPPGGGGGGGGGGGGPPPPPL",
"HPPPPPPPPPPPPPPPPPPPPPPL",
"HPPPPPPPPPPPPPPPPPPPPPPL",
"HPPPPPPPPPPPPPPPPPPPPPPL",
"HPPPPPPPPPPPPPPPPPPPPPPL",
"HPPPPPPPPPPPPPPPPPPPPPPL",
"TLLLLLLLLLLLLLLLLLLLLLLT"
};
