/* XPM */
/* maximize-toggled-pressed */
static char * maximize_toggled_pressed_xpm[] = {
"22 22 5 1",
"T c None",
"H c #2A332A s active_highlight_1",
"L c #050605 s active_shadow_1",
"N c #0E8A3A s active_highlight_2",
"W c #D4EDDD s active_bright",
"TLLLLLLLLLLLLLLLLLLLLT",
"LNNNNNNNNNNNNNNNNNNNNH",
"LNNNNNNNNNNNNNNNNNNNNH",
"LNNNNNNNNNNNNNNNNNNNNH",
"LNNNNNNNNWWWWWWNNNNNNH",
"LNNNNNNNNWNNNNWNNNNNNH",
"LNNNNNNNNWNNNNWNNNNNNH",
"LNNNNNNWWWWWWNWNNNNNNH",
"LNNNNNNWNWNNNNWNNNNNNH",
"LNNNNNNWNWWWWWWNNNNNNH",
"LNNNNNNWNNNNWNNNNNNNNH",
"LNNNNNNWNNNNWNNNNNNNNH",
"LNNNNNNWWWWWWNNNNNNNNH",
"LNNNNNNNNNNNNNNNNNNNNH",
"LNNNNNNNNNNNNNNNNNNNNH",
"LNNNNNNNNNNNNNNNNNNNNH",
"LNNNNNNNNNNNNNNNNNNNNH",
"LNNNNNNNNNNNNNNNNNNNNH",
"LNNNNNNNNNNNNNNNNNNNNH",
"LNNNNNNNNNNNNNNNNNNNNH",
"LNNNNNNNNNNNNNNNNNNNNH",
"THHHHHHHHHHHHHHHHHHHHT"
};
