/* XPM */
/* stick-active */
static char * stick_active_xpm[] = {
"24 24 6 1",
"L c #050605 s active_shadow_1",
"H c #2A332A s active_highlight_1",
"P c #121612 s active_color_2",
"G c #8A8F86 s active_mid_1",
"N c #0E8A3A s active_highlight_2",
"T c None",
"THHHHHHHHHHHHHHHHHHHHHHT",
"HPPPPPPPPPPPPPPPPPPPPPPL",
"HPPPPPPPPPPPPPPPPPPPPPPL",
"HPPPPPPPPPPPPPPPPPPPPPPL",
"HPPPPPPPPPPPPPPPPPPPPPPL",
"HPPPPNNPPPPPPPPPPPPPPPPL",
"HPPPPNNPPGGGGGGPPPPPPPPL",
"HPPPPPPPPGGGGGGPPPPPPPPL",
"HPPPPPPPPGGGGGGPPPPPPPPL",
"HPPPPPPPPGGGGGGPPPPPPPPL",
"HPPPPPPPPGGGGGGPPPPPPPPL",
"HPPPPPPPPGGGGGGPPPPPPPPL",
"HPPPPPPPPPGGGGPPPPPPPPPL",
"HPPPPPPPPPGGGGPPPPPPPPPL",
"HPPPPPPPPPGGGGPPPPPPPPPL",
"HPPPPPPPPPGGGGPPPPPPPPPL",
"HPPPPPPPPPGGGGPPPPPPPPPL",
"HPPPPPPPPPGGGGPPPPPPPPPL",
"HPPPPPPPPPPPPPPPPPPPPPPL",
"HPPPPPPPPPPPPPPPPPPPPPPL",
"HPPPPPPPPPPPPPPPPPPPPPPL",
"HPPPPPPPPPPPPPPPPPPPPPPL",
"HPPPPPPPPPPPPPPPPPPPPPPL",
"TLLLLLLLLLLLLLLLLLLLLLLT"
};
