/* XPM */
/* close-pressed */
static char * close_pressed_xpm[] = {
"24 24 6 1",
"L c #050605 s active_shadow_1",
"H c #3A463A s active_highlight_1",
"O c #66FF9C s active_text_color",
"T c None",
"W c #F2F7F2",
"R c #E94D5A",
"TTTTLHHHHHHHHHHHHHHLTTTT",
"TTTLRRRRRRRRRRRRRRRRLTTT",
"TTLRRRRRRRRRRRRRRRRRRLTT",
"TLRRRRRRRRRRRRRRRRRRRRLT",
"LRRRRRRRRRRRRRRRRRRRRRRL",
"HRRRROWRRRRRRRRRRWRRRRRH",
"HRRRRWWWRRRRRRRRWWWRRRRH",
"HRRRRRWWWRRRRRRWWWRRRRRH",
"HRRRRRRWWWRRRRWWWRRRRRRH",
"HRRRRRRRWWWRRWWWRRRRRRRH",
"HRRRRRRRRWWWWWWRRRRRRRRH",
"HRRRRRRRRRWWWWRRRRRRRRRH",
"HRRRRRRRRRWWWWRRRRRRRRRH",
"HRRRRRRRRWWWWWWRRRRRRRRH",
"HRRRRRRRWWWRRWWWRRRRRRRH",
"HRRRRRRWWWRRRRWWWRRRRRRH",
"HRRRRRWWWRRRRRRWWWRRRRRH",
"HRRRRWWWRRRRRRRRWWWRRRRH",
"HRRRRRWRRRRRRRRRRWRRRRRH",
"HRRRRRRRRRRRRRRRRRRRRRRH",
"THRRRRRRRRRRRRRRRRRRRRHT",
"TTHRRRRRRRRRRRRRRRRRRHTT",
"TTTHRRRRRRRRRRRRRRRRHTTT",
"TTTTHHHHHHHHHHHHHHHHTTTT"
};
