/* XPM */
/* close-active */
static char * close_active_xpm[] = {
"22 22 5 1",
"T c None",
"H c #3A463A s active_highlight_1",
"L c #050605 s active_shadow_1",
"P c #121612 s active_color_2",
"R c #E94D5A",
"THHHHHHHHHHHHHHHHHHHHT",
"HPPPPPPPPPPPPPPPPPPPPL",
"HPPPPPPPPPPPPPPPPPPPPL",
"HPPPPPPPPPPPPPPPPPPPPL",
"HPPPPPRRPPPPPPRRPPPPPL",
"HPPPPPRRRPPPPRRRPPPPPL",
"HPPPPPPRRRPPRRRPPPPPPL",
"HPPPPPPPRRRRRRPPPPPPPL",
"HPPPPPPPPRRRRPPPPPPPPL",
"HPPPPPPPPPRRPPPPPPPPPL",
"HPPPPPPPPPRRPPPPPPPPPL",
"HPPPPPPPPRRRRPPPPPPPPL",
"HPPPPPPPRRRRRRPPPPPPPL",
"HPPPPPPRRRPPRRRPPPPPPL",
"HPPPPPRRRPPPPRRRPPPPPL",
"HPPPPPRRPPPPPPRRPPPPPL",
"HPPPPPPPPPPPPPPPPPPPPL",
"HPPPPPPPPPPPPPPPPPPPPL",
"HPPPPPPPPPPPPPPPPPPPPL",
"HPPPPPPPPPPPPPPPPPPPPL",
"HPPPPPPPPPPPPPPPPPPPPL",
"TLLLLLLLLLLLLLLLLLLLLT"
};
