/* XPM */
/* close-prelight */
static char * close_prelight_xpm[] = {
"24 24 6 1",
"L c #050605 s active_shadow_1",
"H c #3A463A s active_highlight_1",
"O c #66FF9C s active_text_color",
"T c None",
"W c #F2F7F2",
"R c #E94D5A",
"TTTTHLLLLLLLLLLLLLLHTTTT",
"TTTHRRRRRRRRRRRRRRRRHTTT",
"TTHRRRRRRRRRRRRRRRRRRHTT",
"THRRRRRRRRRRRRRRRRRRRRHT",
"HRRRRRRRRRRRRRRRRRRRRRRH",
"LRRRROWRRRRRRRRRRWRRRRRL",
"LRRRRWWWRRRRRRRRWWWRRRRL",
"LRRRRRWWWRRRRRRWWWRRRRRL",
"LRRRRRRWWWRRRRWWWRRRRRRL",
"LRRRRRRRWWWRRWWWRRRRRRRL",
"LRRRRRRRRWWWWWWRRRRRRRRL",
"LRRRRRRRRRWWWWRRRRRRRRRL",
"LRRRRRRRRRWWWWRRRRRRRRRL",
"LRRRRRRRRWWWWWWRRRRRRRRL",
"LRRRRRRRWWWRRWWWRRRRRRRL",
"LRRRRRRWWWRRRRWWWRRRRRRL",
"LRRRRRWWWRRRRRRWWWRRRRRL",
"LRRRRWWWRRRRRRRRWWWRRRRL",
"LRRRRRWRRRRRRRRRRWRRRRRL",
"LRRRRRRRRRRRRRRRRRRRRRRL",
"TLRRRRRRRRRRRRRRRRRRRRLT",
"TTLRRRRRRRRRRRRRRRRRRLTT",
"TTTLRRRRRRRRRRRRRRRRLTTT",
"TTTTLLLLLLLLLLLLLLLLTTTT"
};
