/* XPM */
/* shade-active */
static char * shade_active_xpm[] = {
"24 24 6 1",
"L c #050605 s active_shadow_1",
"H c #3A463A s active_highlight_1",
"P c #121612 s active_color_2",
"G c #B7BEB4 s active_mid_1",
"N c #1AFF6B s active_highlight_2",
"T c None",
"THHHHHHHHHHHHHHHHHHHHHHT",
"HPPPPPPPPPPPPPPPPPPPPPPL",
"HPPPPPPPPPPPPPPPPPPPPPPL",
"HPPPPPPPPPPPPPPPPPPPPPPL",
"HPPPPPPPPPPPPPPPPPPPPPPL",
"HPPPPNNPPPPPPPPPPPPPPPPL",
"HPPPPNNPPPPGGPPPPPPPPPPL",
"HPPPPPPPPPGGGGPPPPPPPPPL",
"HPPPPPPPPGGPPGGPPPPPPPPL",
"HPPPPPPPGGPPPPGGPPPPPPPL",
"HPPPPPPPGGPPPPGGPPPPPPPL",
"HPPPPPPPPPPPPPPPPPPPPPPL",
"HPPPPPPPPPPPPPPPPPPPPPPL",
"HPPPPPPPPPPPPPPPPPPPPPPL",
"HPPPPPPPPPPPPPPPPPPPPPPL",
"HPPPPPPPPPPPPPPPPPPPPPPL",
"HPPPPPPPPPPPPPPPPPPPPPPL",
"HPPPPPPPPPPPPPPPPPPPPPPL",
"HPPPPPPPPPPPPPPPPPPPPPPL",
"HPPPPPPPPPPPPPPPPPPPPPPL",
"HPPPPPPPPPPPPPPPPPPPPPPL",
"HPPPPPPPPPPPPPPPPPPPPPPL",
"HPPPPPPPPPPPPPPPPPPPPPPL",
"TLLLLLLLLLLLLLLLLLLLLLLT"
};
