/* XPM */
/* stick-toggled-inactive */
static char * stick_toggled_inactive_xpm[] = {
"22 22 5 1",
"T c None",
"H c #3A463A s inactive_highlight_1",
"L c #050605 s inactive_shadow_1",
"P c #121612 s inactive_color_2",
"G c #B7BEB4 s inactive_mid_1",
"THHHHHHHHHHHHHHHHHHHHT",
"HPPPPPPPPPPPPPPPPPPPPL",
"HPPPPPPPPPPPPPPPPPPPPL",
"HPPPPPPPPPPPPPPPPPPPPL",
"HPPPPPPPPPPPPPPPPPPPPL",
"HPPPPPPPGGGGGGPPPPPPPL",
"HPPPPPPPGGGGGGPPPPPPPL",
"HPPPPPPPGGGGGGPPPPPPPL",
"HPPPPPPPGGGGGGPPPPPPPL",
"HPPPPPPPGGGGGGPPPPPPPL",
"HPPPPPPPPPGGPPPPPPPPPL",
"HPPPPPPPPPGGPPPPPPPPPL",
"HPPPPPPPPPGGPPPPPPPPPL",
"HPPPPPPPPPGGPPPPPPPPPL",
"HPPPPPPPPPPPPPPPPPPPPL",
"HPPPPPPPPPPPPPPPPPPPPL",
"HPPPPPPPPPPPPPPPPPPPPL",
"HPPPPPPPPPPPPPPPPPPPPL",
"HPPPPPPPPPPPPPPPPPPPPL",
"HPPPPPPPPPPPPPPPPPPPPL",
"HPPPPPPPPPPPPPPPPPPPPL",
"TLLLLLLLLLLLLLLLLLLLLT"
};
