/* XPM */
/* stick-prelight */
static char * stick_prelight_xpm[] = {
"22 22 5 1",
"T c None",
"H c #3A463A s active_highlight_1",
"L c #050605 s active_shadow_1",
"N c #1AFF6B s active_highlight_2",
"W c #F2F7F2 s active_bright",
"THHHHHHHHHHHHHHHHHHHHT",
"HNNNNNNNNNNNNNNNNNNNNL",
"HNNNNNNNNNNNNNNNNNNNNL",
"HNNNNNNNNNNNNNNNNNNNNL",
"HNNNNNNNNNNNNNNNNNNNNL",
"HNNNNNNNNWWWWNNNNNNNNL",
"HNNNNNNNNWWWWNNNNNNNNL",
"HNNNNNNNNWWWWNNNNNNNNL",
"HNNNNNNNNWWWWNNNNNNNNL",
"HNNNNNNNNNWWNNNNNNNNNL",
"HNNNNNNNNNWWNNNNNNNNNL",
"HNNNNNNNNNWWNNNNNNNNNL",
"HNNNNNNNNNWWNNNNNNNNNL",
"HNNNNNNNNNWWNNNNNNNNNL",
"HNNNNNNNNNNNNNNNNNNNNL",
"HNNNNNNNNNNNNNNNNNNNNL",
"HNNNNNNNNNNNNNNNNNNNNL",
"HNNNNNNNNNNNNNNNNNNNNL",
"HNNNNNNNNNNNNNNNNNNNNL",
"HNNNNNNNNNNNNNNNNNNNNL",
"HNNNNNNNNNNNNNNNNNNNNL",
"TLLLLLLLLLLLLLLLLLLLLT"
};
