/* XPM */
/* reduced active lintel */
static char * title_1_active_xpm[] = {
"8 28 4 1",
"L c #050605 s active_shadow_1",
"H c #3A463A s active_highlight_1",
"F c #0C0F0C s active_color_1",
"N c #1AFF6B s active_highlight_2",
"LLLLLLLL",
"HHHHHHHH",
"FFFFFFFF",
"FFFFFFFF",
"FFFFFFFF",
"FFFFFFFF",
"FFFFFFFF",
"FFFFFFFF",
"FFFFFFFF",
"FFFFFFFF",
"FFFFFFFF",
"FFFFFFFF",
"FFFFFFFF",
"FFFFFFFF",
"FFFFFFFF",
"FFFFFFFF",
"FFFFFFFF",
"FFFFFFFF",
"FFFFFFFF",
"FFFFFFFF",
"FFFFFFFF",
"FFFFFFFF",
"FFFFFFFF",
"FFFFFFFF",
"FFFFFFFF",
"NNNNNNNN",
"HHHHHHHH",
"LLLLLLLL"
};
