/* XPM */
/* close-pressed */
static char * close_pressed_xpm[] = {
"22 22 5 1",
"T c None",
"H c #2A332A s active_highlight_1",
"L c #050605 s active_shadow_1",
"W c #D4EDDD",
"R c #C41E3A",
"TLLLLLLLLLLLLLLLLLLLLT",
"LRRRRRRRRRRRRRRRRRRRRH",
"LRRRRRRRRRRRRRRRRRRRRH",
"LRRRRRRRRRRRRRRRRRRRRH",
"LRRRRRWWRRRRRRWWRRRRRH",
"LRRRRRWWWRRRRWWWRRRRRH",
"LRRRRRRWWWRRWWWRRRRRRH",
"LRRRRRRRWWWWWWRRRRRRRH",
"LRRRRRRRRWWWWRRRRRRRRH",
"LRRRRRRRRRWWRRRRRRRRRH",
"LRRRRRRRRRWWRRRRRRRRRH",
"LRRRRRRRRWWWWRRRRRRRRH",
"LRRRRRRRWWWWWWRRRRRRRH",
"LRRRRRRWWWRRWWWRRRRRRH",
"LRRRRRWWWRRRRWWWRRRRRH",
"LRRRRRWWRRRRRRWWRRRRRH",
"LRRRRRRRRRRRRRRRRRRRRH",
"LRRRRRRRRRRRRRRRRRRRRH",
"LRRRRRRRRRRRRRRRRRRRRH",
"LRRRRRRRRRRRRRRRRRRRRH",
"LRRRRRRRRRRRRRRRRRRRRH",
"THHHHHHHHHHHHHHHHHHHHT"
};
