/* XPM */
/* close hover rad LED on */
static char * close_prelight_xpm[] = {
"24 24 6 1",
"L c #050605 s active_shadow_1",
"H c #2A332A s active_highlight_1",
"O c #1AFF6B s active_text_color",
"T c None",
"W c #D4EDDD",
"R c #C41E3A",
"TTTTHLLLLLLLLLLLLLLHTTTT",
"TTTHRRRRRRRRRRRRRRRRHTTT",
"TTHRRRRRRRRRRRRRRRRRRHTT",
"THRRRRRRRRRRRRRRRRRRRRHT",
"HRRRRRRRRRRRRRRRRRRRRRRH",
"LRRRROWRRRRRRRRRRWRRRRRL",
"LRRRRWWWRRRRRRRRWWWRRRRL",
"LRRRRRWWWRRRRRRWWWRRRRRL",
"LRRRRRRWWWRRRRWWWRRRRRRL",
"LRRRRRRRWWWRRWWWRRRRRRRL",
"LRRRRRRRRWWWWWWRRRRRRRRL",
"LRRRRRRRRRWWWWRRRRRRRRRL",
"LRRRRRRRRRWWWWRRRRRRRRRL",
"LRRRRRRRRWWWWWWRRRRRRRRL",
"LRRRRRRRWWWRRWWWRRRRRRRL",
"LRRRRRRWWWRRRRWWWRRRRRRL",
"LRRRRRWWWRRRRRRWWWRRRRRL",
"LRRRRWWWRRRRRRRRWWWRRRRL",
"LRRRRRWRRRRRRRRRRWRRRRRL",
"LRRRRRRRRRRRRRRRRRRRRRRL",
"TLRRRRRRRRRRRRRRRRRRRRLT",
"TTLRRRRRRRRRRRRRRRRRRLTT",
"TTTLRRRRRRRRRRRRRRRRLTTT",
"TTTTLLLLLLLLLLLLLLLLTTTT"
};
