/* XPM */
/* maximize-pressed */
static char * maximize_pressed_xpm[] = {
"24 24 5 1",
"L c #050605 s active_shadow_1",
"H c #2A332A s active_highlight_1",
"P c #121612 s active_color_2",
"O c #1AFF6B s active_text_color",
"T c None",
"TLLLLLLLLLLLLLLLLLLLLLLT",
"LPPPPPPPPPPPPPPPPPPPPPPH",
"LPPPPPPPPPPPPPPPPPPPPPPH",
"LPPPPPPPPPPPPPPPPPPPPPPH",
"LPPPPPPPPPPPPPPPPPPPPPPH",
"LPPPPOOPPPPPPPPPPPPPPPPH",
"LPPPPOOOOOOOOOOOOOPPPPPH",
"LPPPPPOOOOOOOOOOOOPPPPPH",
"LPPPPPOOPPPPPPPPOOPPPPPH",
"LPPPPPOOPPPPPPPPOOPPPPPH",
"LPPPPPOOPPPPPPPPOOPPPPPH",
"LPPPPPOOPPPPPPPPOOPPPPPH",
"LPPPPPOOPPPPPPPPOOPPPPPH",
"LPPPPPOOPPPPPPPPOOPPPPPH",
"LPPPPPOOPPPPPPPPOOPPPPPH",
"LPPPPPOOPPPPPPPPOOPPPPPH",
"LPPPPPOOOOOOOOOOOOPPPPPH",
"LPPPPPOOOOOOOOOOOOPPPPPH",
"LPPPPPPPPPPPPPPPPPPPPPPH",
"LPPPPPPPPPPPPPPPPPPPPPPH",
"LPPPPPPPPPPPPPPPPPPPPPPH",
"LPPPPPPPPPPPPPPPPPPPPPPH",
"LPPPPPPPPPPPPPPPPPPPPPPH",
"THHHHHHHHHHHHHHHHHHHHHHT"
};
