/* XPM */
/* stick-toggled-prelight */
static char * stick_toggled_prelight_xpm[] = {
"22 22 5 1",
"T c None",
"H c #2A332A s active_highlight_1",
"L c #050605 s active_shadow_1",
"N c #0E8A3A s active_highlight_2",
"W c #D4EDDD s active_bright",
"THHHHHHHHHHHHHHHHHHHHT",
"HNNNNNNNNNNNNNNNNNNNNL",
"HNNNNNNNNNNNNNNNNNNNNL",
"HNNNNNNNNNNNNNNNNNNNNL",
"HNNNNNNNNNNNNNNNNNNNNL",
"HNNNNNNNWWWWWWNNNNNNNL",
"HNNNNNNNWWWWWWNNNNNNNL",
"HNNNNNNNWWWWWWNNNNNNNL",
"HNNNNNNNWWWWWWNNNNNNNL",
"HNNNNNNNWWWWWWNNNNNNNL",
"HNNNNNNNNNWWNNNNNNNNNL",
"HNNNNNNNNNWWNNNNNNNNNL",
"HNNNNNNNNNWWNNNNNNNNNL",
"HNNNNNNNNNWWNNNNNNNNNL",
"HNNNNNNNNNNNNNNNNNNNNL",
"HNNNNNNNNNNNNNNNNNNNNL",
"HNNNNNNNNNNNNNNNNNNNNL",
"HNNNNNNNNNNNNNNNNNNNNL",
"HNNNNNNNNNNNNNNNNNNNNL",
"HNNNNNNNNNNNNNNNNNNNNL",
"HNNNNNNNNNNNNNNNNNNNNL",
"TLLLLLLLLLLLLLLLLLLLLT"
};
