/* XPM */
/* stick-inactive */
static char * stick_inactive_xpm[] = {
"22 22 5 1",
"T c None",
"H c #2A332A s inactive_highlight_1",
"L c #050605 s inactive_shadow_1",
"P c #121612 s inactive_color_2",
"G c #8A8F86 s inactive_mid_1",
"THHHHHHHHHHHHHHHHHHHHT",
"HPPPPPPPPPPPPPPPPPPPPL",
"HPPPPPPPPPPPPPPPPPPPPL",
"HPPPPPPPPPPPPPPPPPPPPL",
"HPPPPPPPPPPPPPPPPPPPPL",
"HPPPPPPPPGGGGPPPPPPPPL",
"HPPPPPPPPGGGGPPPPPPPPL",
"HPPPPPPPPGGGGPPPPPPPPL",
"HPPPPPPPPGGGGPPPPPPPPL",
"HPPPPPPPPPGGPPPPPPPPPL",
"HPPPPPPPPPGGPPPPPPPPPL",
"HPPPPPPPPPGGPPPPPPPPPL",
"HPPPPPPPPPGGPPPPPPPPPL",
"HPPPPPPPPPGGPPPPPPPPPL",
"HPPPPPPPPPPPPPPPPPPPPL",
"HPPPPPPPPPPPPPPPPPPPPL",
"HPPPPPPPPPPPPPPPPPPPPL",
"HPPPPPPPPPPPPPPPPPPPPL",
"HPPPPPPPPPPPPPPPPPPPPL",
"HPPPPPPPPPPPPPPPPPPPPL",
"HPPPPPPPPPPPPPPPPPPPPL",
"TLLLLLLLLLLLLLLLLLLLLT"
};
