/* XPM */
/* close-prelight */
static char * close_prelight_xpm[] = {
"22 22 5 1",
"T c None",
"H c #3A463A s active_highlight_1",
"L c #050605 s active_shadow_1",
"W c #F2F7F2",
"R c #E94D5A",
"THHHHHHHHHHHHHHHHHHHHT",
"HRRRRRRRRRRRRRRRRRRRRL",
"HRRRRRRRRRRRRRRRRRRRRL",
"HRRRRRRRRRRRRRRRRRRRRL",
"HRRRRRWWRRRRRRWWRRRRRL",
"HRRRRRWWWRRRRWWWRRRRRL",
"HRRRRRRWWWRRWWWRRRRRRL",
"HRRRRRRRWWWWWWRRRRRRRL",
"HRRRRRRRRWWWWRRRRRRRRL",
"HRRRRRRRRRWWRRRRRRRRRL",
"HRRRRRRRRRWWRRRRRRRRRL",
"HRRRRRRRRWWWWRRRRRRRRL",
"HRRRRRRRWWWWWWRRRRRRRL",
"HRRRRRRWWWRRWWWRRRRRRL",
"HRRRRRWWWRRRRWWWRRRRRL",
"HRRRRRWWRRRRRRWWRRRRRL",
"HRRRRRRRRRRRRRRRRRRRRL",
"HRRRRRRRRRRRRRRRRRRRRL",
"HRRRRRRRRRRRRRRRRRRRRL",
"HRRRRRRRRRRRRRRRRRRRRL",
"HRRRRRRRRRRRRRRRRRRRRL",
"TLLLLLLLLLLLLLLLLLLLLT"
};
