/* XPM */
/* close-pressed */
static char * close_pressed_xpm[] = {
"22 22 5 1",
"T c None",
"H c #3A463A s active_highlight_1",
"L c #050605 s active_shadow_1",
"W c #F2F7F2",
"R c #E94D5A",
"TLLLLLLLLLLLLLLLLLLLLT",
"LRRRRRRRRRRRRRRRRRRRRH",
"LRRRRRRRRRRRRRRRRRRRRH",
"LRRRRRRRRRRRRRRRRRRRRH",
"LRRRRRWWRRRRRRWWRRRRRH",
"LRRRRRWWWRRRRWWWRRRRRH",
"LRRRRRRWWWRRWWWRRRRRRH",
"LRRRRRRRWWWWWWRRRRRRRH",
"LRRRRRRRRWWWWRRRRRRRRH",
"LRRRRRRRRRWWRRRRRRRRRH",
"LRRRRRRRRRWWRRRRRRRRRH",
"LRRRRRRRRWWWWRRRRRRRRH",
"LRRRRRRRWWWWWWRRRRRRRH",
"LRRRRRRWWWRRWWWRRRRRRH",
"LRRRRRWWWRRRRWWWRRRRRH",
"LRRRRRWWRRRRRRWWRRRRRH",
"LRRRRRRRRRRRRRRRRRRRRH",
"LRRRRRRRRRRRRRRRRRRRRH",
"LRRRRRRRRRRRRRRRRRRRRH",
"LRRRRRRRRRRRRRRRRRRRRH",
"LRRRRRRRRRRRRRRRRRRRRH",
"THHHHHHHHHHHHHHHHHHHHT"
};
