/* XPM */
/* maximize-toggled-pressed */
static char * maximize_toggled_pressed_xpm[] = {
"22 22 5 1",
"T c None",
"H c #3A463A s active_highlight_1",
"L c #050605 s active_shadow_1",
"P c #121612 s active_color_2",
"O c #66FF9C s active_text_color",
"TLLLLLLLLLLLLLLLLLLLLT",
"LPPPPPPPPPPPPPPPPPPPPH",
"LPPPPPPPPPPPPPPPPPPPPH",
"LPPPPPPPPPPPPPPPPPPPPH",
"LPPPPPPPPOOOOOOPPPPPPH",
"LPPPPPPPPOPPPPOPPPPPPH",
"LPPPPPPPPOPPPPOPPPPPPH",
"LPPPPPPOOOOOOPOPPPPPPH",
"LPPPPPPOPOPPPPOPPPPPPH",
"LPPPPPPOPOOOOOOPPPPPPH",
"LPPPPPPOPPPPOPPPPPPPPH",
"LPPPPPPOPPPPOPPPPPPPPH",
"LPPPPPPOOOOOOPPPPPPPPH",
"LPPPPPPPPPPPPPPPPPPPPH",
"LPPPPPPPPPPPPPPPPPPPPH",
"LPPPPPPPPPPPPPPPPPPPPH",
"LPPPPPPPPPPPPPPPPPPPPH",
"LPPPPPPPPPPPPPPPPPPPPH",
"LPPPPPPPPPPPPPPPPPPPPH",
"LPPPPPPPPPPPPPPPPPPPPH",
"LPPPPPPPPPPPPPPPPPPPPH",
"THHHHHHHHHHHHHHHHHHHHT"
};
