/* XPM */
/* maximize-toggled-prelight */
static char * maximize_toggled_prelight_xpm[] = {
"22 22 5 1",
"T c None",
"H c #3A463A s active_highlight_1",
"L c #050605 s active_shadow_1",
"N c #1AFF6B s active_highlight_2",
"W c #F2F7F2 s active_bright",
"THHHHHHHHHHHHHHHHHHHHT",
"HNNNNNNNNNNNNNNNNNNNNL",
"HNNNNNNNNNNNNNNNNNNNNL",
"HNNNNNNNNNNNNNNNNNNNNL",
"HNNNNNNNNWWWWWWNNNNNNL",
"HNNNNNNNNWNNNNWNNNNNNL",
"HNNNNNNNNWNNNNWNNNNNNL",
"HNNNNNNWWWWWWNWNNNNNNL",
"HNNNNNNWNWNNNNWNNNNNNL",
"HNNNNNNWNWWWWWWNNNNNNL",
"HNNNNNNWNNNNWNNNNNNNNL",
"HNNNNNNWNNNNWNNNNNNNNL",
"HNNNNNNWWWWWWNNNNNNNNL",
"HNNNNNNNNNNNNNNNNNNNNL",
"HNNNNNNNNNNNNNNNNNNNNL",
"HNNNNNNNNNNNNNNNNNNNNL",
"HNNNNNNNNNNNNNNNNNNNNL",
"HNNNNNNNNNNNNNNNNNNNNL",
"HNNNNNNNNNNNNNNNNNNNNL",
"HNNNNNNNNNNNNNNNNNNNNL",
"HNNNNNNNNNNNNNNNNNNNNL",
"TLLLLLLLLLLLLLLLLLLLLT"
};
