/* XPM */
/* stick-toggled-inactive */
static char * stick_toggled_inactive_xpm[] = {
"24 24 6 1",
"L c #050605 s inactive_shadow_1",
"H c #3A463A s inactive_highlight_1",
"P c #121612 s inactive_color_2",
"G c #B7BEB4 s inactive_mid_1",
"N c #0E8A3A s inactive_highlight_2",
"T c None",
"THHHHHHHHHHHHHHHHHHHHHHT",
"HPPPPPPPPPPPPPPPPPPPPPPL",
"HPPPPPPPPPPPPPPPPPPPPPPL",
"HPPPPPPPPPPPPPPPPPPPPPPL",
"HPPPPPPPPPPPPPPPPPPPPPPL",
"HPPPPNNPPPPPPPPPPPPPPPPL",
"HPPPPNNPPGGGGGGPPPPPPPPL",
"HPPPPPPPPGGGGGGPPPPPPPPL",
"HPPPPPPPPGGGGGGPPPPPPPPL",
"HPPPPPPPPGGGGGGPPPPPPPPL",
"HPPPPPPPPGGGGGGPPPPPPPPL",
"HPPPPPPPPGGGGGGPPPPPPPPL",
"HPPPPPPPPGGGGGGPPPPPPPPL",
"HPPPPPPPPGGGGGGPPPPPPPPL",
"HPPPPPPPPGGGGGGPPPPPPPPL",
"HPPPPPPPPGGGGGGPPPPPPPPL",
"HPPPPPPPPGGGGGGPPPPPPPPL",
"HPPPPPPPPGGGGGGPPPPPPPPL",
"HPPPPPPPPPPPPPPPPPPPPPPL",
"HPPPPPPPPPPPPPPPPPPPPPPL",
"HPPPPPPPPPPPPPPPPPPPPPPL",
"HPPPPPPPPPPPPPPPPPPPPPPL",
"HPPPPPPPPPPPPPPPPPPPPPPL",
"TLLLLLLLLLLLLLLLLLLLLLLT"
};
