/* XPM */
/* stick-toggled-prelight */
static char * stick_toggled_prelight_xpm[] = {
"24 24 5 1",
"L c #050605 s active_shadow_1",
"H c #3A463A s active_highlight_1",
"P c #121612 s active_color_2",
"O c #66FF9C s active_text_color",
"T c None",
"THHHHHHHHHHHHHHHHHHHHHHT",
"HPPPPPPPPPPPPPPPPPPPPPPL",
"HPPPPPPPPPPPPPPPPPPPPPPL",
"HPPPPPPPPPPPPPPPPPPPPPPL",
"HPPPPPPPPPPPPPPPPPPPPPPL",
"HPPPPOOPPPPPPPPPPPPPPPPL",
"HPPPPOOPPOOOOOOPPPPPPPPL",
"HPPPPPPPPOOOOOOPPPPPPPPL",
"HPPPPPPPPOOOOOOPPPPPPPPL",
"HPPPPPPPPOOOOOOPPPPPPPPL",
"HPPPPPPPPOOOOOOPPPPPPPPL",
"HPPPPPPPPOOOOOOPPPPPPPPL",
"HPPPPPPPPOOOOOOPPPPPPPPL",
"HPPPPPPPPOOOOOOPPPPPPPPL",
"HPPPPPPPPOOOOOOPPPPPPPPL",
"HPPPPPPPPOOOOOOPPPPPPPPL",
"HPPPPPPPPOOOOOOPPPPPPPPL",
"HPPPPPPPPOOOOOOPPPPPPPPL",
"HPPPPPPPPPPPPPPPPPPPPPPL",
"HPPPPPPPPPPPPPPPPPPPPPPL",
"HPPPPPPPPPPPPPPPPPPPPPPL",
"HPPPPPPPPPPPPPPPPPPPPPPL",
"HPPPPPPPPPPPPPPPPPPPPPPL",
"TLLLLLLLLLLLLLLLLLLLLLLT"
};
