/* XPM */
/* stick-toggled-active */
static char * stick_toggled_active_xpm[] = {
"22 22 5 1",
"T c None",
"H c #3A463A s active_highlight_1",
"L c #050605 s active_shadow_1",
"P c #121612 s active_color_2",
"G c #B7BEB4 s active_mid_1",
"THHHHHHHHHHHHHHHHHHHHT",
"HPPPPPPPPPPPPPPPPPPPPL",
"HPPPPPPPPPPPPPPPPPPPPL",
"HPPPPPPPPPPPPPPPPPPPPL",
"HPPPPPPPPPPPPPPPPPPPPL",
"HPPPPPPPGGGGGGPPPPPPPL",
"HPPPPPPPGGGGGGPPPPPPPL",
"HPPPPPPPGGGGGGPPPPPPPL",
"HPPPPPPPGGGGGGPPPPPPPL",
"HPPPPPPPGGGGGGPPPPPPPL",
"HPPPPPPPPPGGPPPPPPPPPL",
"HPPPPPPPPPGGPPPPPPPPPL",
"HPPPPPPPPPGGPPPPPPPPPL",
"HPPPPPPPPPGGPPPPPPPPPL",
"HPPPPPPPPPPPPPPPPPPPPL",
"HPPPPPPPPPPPPPPPPPPPPL",
"HPPPPPPPPPPPPPPPPPPPPL",
"HPPPPPPPPPPPPPPPPPPPPL",
"HPPPPPPPPPPPPPPPPPPPPL",
"HPPPPPPPPPPPPPPPPPPPPL",
"HPPPPPPPPPPPPPPPPPPPPL",
"TLLLLLLLLLLLLLLLLLLLLT"
};
