/* XPM */
/* reduced inactive lintel */
static char * title_1_inactive_xpm[] = {
"8 28 4 1",
"L c #050605 s inactive_shadow_1",
"H c #3A463A s inactive_highlight_1",
"F c #070807 s inactive_color_1",
"G c #B7BEB4 s inactive_mid_1",
"LLLLLLLL",
"HHHHHHHH",
"FFFFFFFF",
"FFFFFFFF",
"FFFFFFFF",
"FFFFFFFF",
"FFFFFFFF",
"FFFFFFFF",
"FFFFFFFF",
"FFFFFFFF",
"FFFFFFFF",
"FFFFFFFF",
"FFFFFFFF",
"FFFFFFFF",
"FFFFFFFF",
"FFFFFFFF",
"FFFFFFFF",
"FFFFFFFF",
"FFFFFFFF",
"FFFFFFFF",
"FFFFFFFF",
"FFFFFFFF",
"FFFFFFFF",
"FFFFFFFF",
"FFFFFFFF",
"GGGGGGGG",
"HHHHHHHH",
"LLLLLLLL"
};
